X:32
T:Seltan D'Uvieu
M:4/4
L:1/8
R:Reel
K:G major
gagf|e3f gage|B3e gagf|edef gage|c3e gagf|e3f fgfd|B3e e=fed|!
|:c3B A3B|cBAe e=fed|c3B AGAF|1G3e e=fed:|2G4 BdBG||!
|:c3B AGAF|F~A3 BdBG|c3B AGAF|G4 FGAB|!
c3B AGAF|F~A3 BdBG|c3B AGAF|1G4 BdBG:|2GABd||

